images/dist/icons/vk.svg

<svg width="40" height="40" viewBox="0 0 40 40" fill="none" xmlns="http://www.w3.org/2000/svg">
<g clip-path="url(#clip0)">
<path d="M26.139 0H13.8603C2.65527 0 -0.000976562 2.65625 -0.000976562 13.8612V26.14C-0.000976562 37.345 2.65527 40.0012 13.8603 40.0012H26.139C37.344 40.0012 40.0003 37.345 40.0003 26.14V13.8612C40.0003 2.65625 37.3178 0 26.139 0ZM32.2915 28.535H29.3878C28.2878 28.535 27.949 27.6625 25.9703 25.6575C24.2515 23.9912 23.4903 23.77 23.0665 23.77C22.4678 23.77 22.2978 23.9388 22.2978 24.76V27.3837C22.2978 28.0875 22.0765 28.51 20.214 28.51C17.134 28.51 13.7165 26.6475 11.3203 23.1775C7.70652 18.0925 6.71777 14.2837 6.71777 13.4962C6.71777 13.0725 6.88652 12.6762 7.70027 12.6762H10.6103C11.3465 12.6762 11.6265 13.015 11.9128 13.8025C13.3515 17.9562 15.7478 21.595 16.7365 21.595C17.1015 21.595 17.2703 21.4262 17.2703 20.495V16.205C17.159 14.2262 16.1178 14.0562 16.1178 13.3537C16.1178 13.015 16.3978 12.6762 16.8465 12.6762H21.4228C22.0415 12.6762 22.269 13.015 22.269 13.7437V19.5312C22.269 20.1562 22.549 20.3775 22.7178 20.3775C23.0828 20.3775 23.3953 20.1563 24.0715 19.4788C26.1615 17.135 27.659 13.5213 27.659 13.5213C27.854 13.0975 28.1928 12.7013 28.929 12.7013H31.839C32.7115 12.7013 32.9065 13.15 32.7115 13.775C32.3465 15.4675 28.7853 20.4938 28.7853 20.4938C28.479 21.0013 28.3615 21.2225 28.7853 21.7887C29.0978 22.2125 30.114 23.0913 30.7903 23.8788C32.034 25.2913 32.9903 26.4762 33.2453 27.2962C33.5315 28.11 33.109 28.5337 32.2878 28.5337L32.2915 28.535Z" fill="white"/>
</g>
<defs>
<clipPath id="clip0">
<rect width="40" height="40" fill="white"/>
</clipPath>
</defs>
</svg>

<svg width="40" height="40" fill="none" xmlns="http://www.w3.org/2000/svg"><g clip-path="url(#clip0)"><path d="M26.139 0H13.86C2.655 0 0 2.656 0 13.861V26.14c0 11.205 2.656 13.861 13.861 13.861H26.14C37.344 40.001 40 37.345 40 26.14V13.861C40 2.656 37.318 0 26.14 0zm6.152 28.535h-2.903c-1.1 0-1.439-.872-3.418-2.878-1.718-1.666-2.48-1.887-2.903-1.887-.6 0-.77.169-.77.99v2.624c0 .703-.22 1.126-2.083 1.126-3.08 0-6.497-1.863-8.894-5.333-3.613-5.084-4.602-8.893-4.602-9.68 0-.425.169-.82.982-.82h2.91c.737 0 1.017.338 1.303 1.126 1.438 4.153 3.835 7.792 4.823 7.792.366 0 .534-.169.534-1.1v-4.29c-.111-1.979-1.152-2.149-1.152-2.851 0-.339.28-.678.729-.678h4.576c.619 0 .846.339.846 1.068v5.787c0 .625.28.847.449.847.365 0 .677-.222 1.354-.9 2.09-2.343 3.587-5.957 3.587-5.957.195-.424.534-.82 1.27-.82h2.91c.873 0 1.068.449.873 1.074-.366 1.692-3.927 6.719-3.927 6.719-.306.507-.424.729 0 1.295.313.423 1.329 1.302 2.005 2.09 1.244 1.412 2.2 2.597 2.455 3.417.287.814-.136 1.238-.957 1.238l.004.001z" fill="#fff"/></g><defs><clipPath id="clip0"><path fill="#fff" d="M0 0h40v40H0z"/></clipPath></defs></svg>
